X: 20991
T: the Birth of Kisses
%R: jig
B: James Oswald "The Caledonian Pocket Companion" v.2 p.99 #1
Z: 2019 John Chambers <jc:trillian.mit.edu>
M: 6/8
L: 1/8
K: G
d |"_Lively"\
cBA GAB | dBd e2g | d2c BAG | (F2G) A2d |\
cBA GAB | dBd e2g | d2c BAG | cAF G2 :|
|: d |\
dBc d2e | dBcd2B | A2g fed | B2e e2f |\
g2f edB | ABd ege | d2c BAG | E2G G2 :|
|: g |\
BGB AcA | BGB A2g | Bdc BAG | FGA D2g |\
BGB AcA | BGB Age | d2c BdD | E2G G2 :|
|: d |\
dgd Te2d | Bge d2B | A2g fed | B2e e2f |\
g(a/g/f/e/) dgB | ABd e2g | d2c BdD | E2G G2 :|
